svg/fluentui-system-icons/ic_fluent_chat_arrow_double_back_20_filled.svg

<svg width="20" height="20" viewBox="0 0 20 20" fill="none" xmlns="http://www.w3.org/2000/svg">
<g opacity="0.99">
<path d="M10 2C14.4183 2 18 5.58172 18 10C18 10.085 17.9987 10.1696 17.996 10.2539C17.0457 9.47051 15.8278 9 14.5 9C11.4624 9 9 11.4624 9 14.5C9 15.8278 9.47051 17.0457 10.2539 17.996C10.1696 17.9987 10.085 18 10 18C8.72679 18 7.49591 17.7018 6.38669 17.1393L6.266 17.075L2.62109 17.9851C2.31127 18.0625 2.02622 17.8369 2.00131 17.5438L2.00114 17.4624L2.01493 17.3787L2.925 13.735L2.86169 13.6153C2.4066 12.7186 2.12433 11.7422 2.03275 10.7283L2.00738 10.3463L2 10C2 5.58172 5.58172 2 10 2ZM19 14.5C19 16.9853 16.9853 19 14.5 19C12.0147 19 10 16.9853 10 14.5C10 12.0147 12.0147 10 14.5 10C16.9853 10 19 12.0147 19 14.5ZM13.3536 13.3535C13.5488 13.1583 13.5488 12.8417 13.3536 12.6464C13.1583 12.4512 12.8417 12.4512 12.6464 12.6464L11.1464 14.1464C10.9512 14.3417 10.9512 14.6583 11.1464 14.8535L12.6464 16.3535C12.8417 16.5488 13.1583 16.5488 13.3536 16.3535C13.5488 16.1583 13.5488 15.8417 13.3536 15.6464L12.2071 14.5L13.3536 13.3535ZM15.2071 14L15.8536 13.3535C16.0488 13.1583 16.0488 12.8417 15.8536 12.6464C15.6583 12.4512 15.3417 12.4512 15.1464 12.6464L13.6464 14.1464C13.4512 14.3417 13.4512 14.6583 13.6464 14.8535L15.1464 16.3535C15.3417 16.5488 15.6583 16.5488 15.8536 16.3535C16.0488 16.1583 16.0488 15.8417 15.8536 15.6464L15.2071 15H17V15.5C17 15.7761 17.2239 16 17.5 16C17.7761 16 18 15.7761 18 15.5V15C18 14.4477 17.5523 14 17 14H15.2071Z" fill="#212121"/>
</g>
</svg>

<svg xmlns="http://www.w3.org/2000/svg" width="20" height="20"><path d="M10 2a8 8 0 0 1 7.996 8.254 5.5 5.5 0 0 0-7.742 7.742 7.968 7.968 0 0 1-3.867-.857l-.121-.064-3.645.91a.5.5 0 0 1-.62-.441v-.082l.014-.083.91-3.644-.063-.12a7.95 7.95 0 0 1-.83-2.887l-.025-.382L2 10a8 8 0 0 1 8-8Zm9 12.5a4.5 4.5 0 1 1-9 0 4.5 4.5 0 0 1 9 0Zm-5.646-1.146a.5.5 0 0 0-.708-.708l-1.5 1.5a.5.5 0 0 0 0 .707l1.5 1.5a.5.5 0 0 0 .708-.707L12.207 14.5l1.147-1.146Zm1.853.646.647-.646a.5.5 0 0 0-.708-.708l-1.5 1.5a.5.5 0 0 0 0 .707l1.5 1.5a.5.5 0 0 0 .708-.707L15.207 15H17v.5a.5.5 0 0 0 1 0V15a1 1 0 0 0-1-1h-1.793Z" opacity=".99"/></svg>
